X: 390
T: Bir Melek-sîma Peri Gördüm
C: Hacı Ârif Bey
O: Turkey
F: http://compmusic.upf.edu/node/140
N: ussak--sarki--aksak--bir_melek--haci_arif_bey
N: makam= ussak
N: form= sarki
N: usul= aksak = 9/8
M: 9/8
L: 1/16
K: C _2/4B   
Q: 1/4=120
%%MIDI tuningsystem comma53
z4 G3A A4 c4 cB | B3/2A/ GABA dccB BAA2 G2BA  | 
w:  Bir  me lek  sî  |  mâ  *  *  *  *  *  pe *  ri  *  *  *  gör  | 
A4 A3f eddc d6 | d2 e^3/4fg2 fea2 g=fed dced  | 
w:  *  düm  der_ i  *  *  *  mey  |  hâ *  *  *  *  *  *  *  *  *  *  *  *  ne  | 
d6ef edcB A6 | z4G3AA4c4cB  | B3/2A/GA BAdc cBBA A2G2 BA | 
w:  de   SAZ  |  Bir  me lek  sî  |  mâ  *  *  *  *  *  pe *  ri  *  *  *  gör  | 
A4A3fed dcd6  | d2e^3/4f g2fe a2g=f eddc ed | 
w:  *  düm  der_ i  *  *  *  mey  |  hâ *  *  *  *  *  *  *  *  *  *  *  *  ne  | 
d6 efed dcd6  | z4 c3d efef agfe d2 | \
w:  de   SAZ  |  Kal ma dı  *  *  *  gam  | 
f3/2e/ fge3d(3dcd e3/2d/d6  | 
w:  dan  *  *  *  e *  ser  *  *  *  *  as  | 
d2cd c2de d3/2c/Bd c4 cB | B3/2A/ GABA dccB BAA2 G2BA  | 
w:  *  lâ  *  *  dil_ *  i  *  *  *  dî  |  vâ *  *  *  *  *  *  *  *  *  *  *  *  *  ne  | 
A6ef eddc d6 | z4c3def efag fed2  | f3/2e/fg e3d (3dcde3/2d/ d6 | 
w:  de   SAZ  |  Kal ma dı  *  *  *  gam  |  dan  *  *  *  e *  ser  *  *  *  *  as  | 
d2 cdc2 ded3/2c/ Bdc4cB  | B3/2A/GA BAdc cBBA A2G2 BA | 
w:  *  lâ  *  *  dil_ *  i  *  *  *  dî  |  vâ *  *  *  *  *  *  *  *  *  *  *  *  *  ne  | 
A6 g2g3/2^3/4f/ efg6  | z4 g3/2^3/4f/ef g2ag g4 fe | \
w:  de   SAZ  |  Var_ *  *  i miş  *  *  bir   | 
d2 dcc2 cBBA BAA6  | 
w:  baş *  *  ka  *  *  hâ *  *  *  let   | 
z4 g3/2^3/4f/ef g2ag g6 | g2 c'ba2 bag2 ag^3/4f3/2e/ d2ef  | 
w:  soh *  *  bet_ i  *  *  mes  |  tâ *  *  *  *  *  *  *  *  *  *  *  ne  | 
g6fe eddc d6 | z4c3def efag fed2  | f3/2e/fg e3d (3dcde3/2d/ d6 | 
w:  de   SAZ  |  Kal ma dı  *  *  *  gam  |  dan  *  *  *  e *  ser  *  *  *  *  as  | 
d2 cdc2 ded3/2c/ Bdc4cB  | B3/2A/GA BAdc cBBA A2G2 BA | 
w:  *  lâ  *  *  dil_ *  i  *  *  *  dî  |  vâ *  *  *  *  *  *  *  *  *  *  *  *  *  ne  | 
A6 efed dcd6  | z4 c3d efef agfe d2 | \
w:  de   SAZ  |  Kal ma dı  *  *  *  gam  | 
f3/2e/ fge3d(3dcd e3/2d/d6  | 
w:  dan  *  *  *  e *  ser  *  *  *  *  as  | 
d2cd c2de d3/2c/Bd c4 cB | B3/2A/ GABA dccB BAA2 G2BA  | 
w:  *  lâ  *  *  dil_ *  i  *  *  *  dî  |  vâ *  *  *  *  *  *  *  *  *  *  *  *  *  ne  | 
A6|
w:  de    | 


